X: 30769
T: Orphan, The
R: jig
M: 6/8
K: Aminor
"Am"A2 A AGE|"C"cBc "G"d3|"G"e2 e ded|"Am"cAB AGE|
"G"DED "Am"AGE|"C"cBc "D"dcd|"Em"ege "G"ded|"F"cAG "Am"A3:|
|:"F"a2 a "G"ged|"C"cde geg|"F"a2 a "G"ged|"Am"ecA "G"GEG|
"D"Adc "Am"AGE|"C"cBc "G"dcd|"C"ege "G"ded|"Am"BAG A3:|

